app/javascript/images/logo_white.svg

<svg width="125" height="30" viewBox="0 0 125 30" fill="none" xmlns="http://www.w3.org/2000/svg">
<path d="M17.4202 8.14547C16.829 7.3926 16.0549 6.79498 15.1021 6.35049C14.1472 5.906 13.2263 5.68481 12.3394 5.68481C11.8822 5.68481 11.4185 5.72522 10.9485 5.80604C10.4785 5.88686 10.0553 6.04211 9.67886 6.26967C9.30242 6.49936 8.98554 6.79285 8.73033 7.15653C8.47512 7.52021 8.34751 7.98384 8.34751 8.54743C8.34751 9.03233 8.44747 9.43428 8.64951 9.75755C8.85155 10.0808 9.14717 10.3615 9.53637 10.604C9.92556 10.8464 10.3892 11.0676 10.9273 11.2697C11.4653 11.4717 12.0693 11.6801 12.7414 11.8949C13.7091 12.2182 14.7171 12.5734 15.7656 12.9626C16.8141 13.3518 17.769 13.8707 18.6282 14.5151C19.4875 15.1595 20.202 15.9613 20.7656 16.9141C21.3292 17.869 21.6121 19.0578 21.6121 20.4828C21.6121 22.1225 21.3101 23.541 20.704 24.7363C20.1 25.9336 19.2854 26.9205 18.2646 27.701C17.2416 28.4815 16.074 29.0578 14.7554 29.4343C13.4368 29.8107 12.08 30 10.6827 30C8.63888 30 6.66312 29.6427 4.75542 28.9302C2.84985 28.222 1.26329 27.2076 0 25.889L4.51723 21.2909C5.21693 22.1523 6.13569 22.8711 7.27988 23.4475C8.42195 24.0259 9.55764 24.3152 10.6869 24.3152C11.1974 24.3152 11.695 24.262 12.1799 24.1536C12.6648 24.0472 13.088 23.8707 13.4496 23.6282C13.8111 23.3858 14.1004 23.0647 14.3173 22.6606C14.5321 22.2565 14.6406 21.7737 14.6406 21.208C14.6406 20.6699 14.5066 20.2148 14.2365 19.8362C13.9685 19.4598 13.5836 19.1174 13.088 18.809C12.5904 18.5006 11.9715 18.2178 11.2335 17.9626C10.4934 17.7074 9.65334 17.433 8.71331 17.1353C7.79881 16.8396 6.90557 16.4909 6.03148 16.0868C5.15738 15.6827 4.37899 15.1659 3.69205 14.5342C3.00723 13.9026 2.45427 13.137 2.03956 12.2352C1.62271 11.3356 1.41429 10.2382 1.41429 8.94938C1.41429 7.36282 1.73756 6.00596 2.38196 4.87665C3.02637 3.74734 3.87495 2.82008 4.92344 2.09485C5.97193 1.36963 7.1544 0.837941 8.47299 0.501914C9.7852 0.168014 11.1165 0 12.4607 0C14.0727 0 15.721 0.295619 17.4011 0.886857C19.0812 1.47809 20.553 2.35219 21.8162 3.50702L17.4202 8.14547Z" fill="#F5F4F9"/>
<path d="M42.5288 29.2773L31.9227 16.1318H31.8419V29.2773H25.1064V0.725586H31.8419V12.3398H31.9631L42.1651 0.725586H50.7955L38.4965 13.8711L51.5229 29.2751H42.5288V29.2773Z" fill="#F5F4F9"/>
<path d="M53.7793 29.2773V0.725586H60.7146V29.2773H53.7793Z" fill="#F5F4F9"/>
<path d="M64.4766 29.2773V0.725586H71.4119V23.2692H82.4604V29.2773H64.4766Z" fill="#F5F4F9"/>
<path d="M85.4766 29.2773V0.725586H92.4119V23.2692H103.46V29.2773H85.4766Z" fill="#F5F4F9"/>
<path d="M115.719 29.2773L109.469 19.1964L103.461 29.2773H95.2344L105.236 14.1943L96.0404 0.725586H104.348L109.671 9.59841L114.913 0.725586H122.937L113.905 14.1943L124.228 29.2773H115.719Z" fill="white"/>
</svg>

<svg width="125" height="30" fill="none" xmlns="http://www.w3.org/2000/svg"><path d="M17.42 8.145c-.591-.752-1.365-1.35-2.318-1.795-.955-.444-1.876-.665-2.763-.665-.457 0-.92.04-1.39.121-.47.08-.894.236-1.27.464-.377.23-.693.523-.949.887-.255.363-.382.827-.382 1.39 0 .485.1.887.302 1.21.202.324.497.604.886.847.39.242.853.464 1.391.666s1.142.41 1.814.625c.968.323 1.976.678 3.025 1.068 1.048.389 2.003.908 2.862 1.552a8.159 8.159 0 012.138 2.4c.563.954.846 2.143.846 3.568 0 1.64-.302 3.058-.908 4.253a8.484 8.484 0 01-2.44 2.965c-1.022.78-2.19 1.357-3.509 1.733a14.761 14.761 0 01-4.072.566c-2.044 0-4.02-.357-5.928-1.07C2.85 28.222 1.263 27.208 0 25.89l4.517-4.598c.7.861 1.619 1.58 2.763 2.157 1.142.578 2.278.867 3.407.867.51 0 1.008-.053 1.493-.161a3.668 3.668 0 001.27-.526c.361-.242.65-.563.867-.967.215-.405.324-.887.324-1.453 0-.538-.134-.993-.405-1.372-.268-.376-.652-.719-1.148-1.027-.498-.308-1.116-.591-1.854-.846-.74-.256-1.58-.53-2.52-.828a23.915 23.915 0 01-2.683-1.048 9.02 9.02 0 01-2.339-1.553 7.156 7.156 0 01-1.652-2.299c-.417-.9-.626-1.997-.626-3.286 0-1.586.324-2.943.968-4.072a8.397 8.397 0 012.541-2.782A10.92 10.92 0 018.473.502 16.123 16.123 0 0112.461 0c1.612 0 3.26.296 4.94.887a12.727 12.727 0 014.415 2.62L17.42 8.145zM42.529 29.277L31.923 16.132h-.081v13.145h-6.736V.726h6.736V12.34h.121L42.165.726h8.63L38.496 13.87l13.027 15.404h-8.994v.002zM53.78 29.277V.726h6.935v28.551h-6.936zM64.477 29.277V.726h6.935v22.543H82.46v6.008H64.477zM85.477 29.277V.726h6.935v22.543h11.048v6.008H85.477z" fill="#F5F4F9"/><path d="M115.719 29.277l-6.25-10.08-6.008 10.08h-8.227l10.002-15.083L96.04.726h8.308l5.323 8.872 5.242-8.872h8.024l-9.032 13.468 10.323 15.083h-8.509z" fill="#fff"/></svg>
